X:4
T:L'Amant Curieux
R:Rondanse
A:Normandie
O:France
M:2/4
L:1/8
Q:1/4=112
K:Bb
Bc BA|G2-Gz|dc dd|ed z2|Bc BA|G2-Gz|dc dd|ed z2|d2 ed|cB c2|!
AB cc|dc BA|G2 AB|AG A2|FG AB|G^F D2-|DG D2-|DG D2-|D2 zB|cc BA|G4||
